X:1
T:Si Bheag Si Mhor
C:Turlough O'Carolan
R:waltz
M:3/4
L:1/8
Q:1/4=100
K:D
|:F2A2d2|e2d2B2|A2F2D2|E2F2A2|
F2A2d2|e2f2a2|f2e2d2|B2A2F2|
F2A2d2|e2d2B2|A2F2D2|E2F2A2|
d2f2e2|d2B2A2|F2E2D2|D6:|
|:f2a2b2|a2f2d2|A2d2f2|e2f2a2|
f2a2b2|a2f2d2|A2B2d2|B2A2F2|
f2a2b2|a2f2d2|A2d2f2|e2f2a2|
d2f2e2|d2B2A2|F2E2D2|D6:|
